X: 159
T:Sunset, The
M:C|
C:Cathal McConnell &amp; Seamus Quinn
R:reel
D:Altan: Altan
Z:Henrik Norbeck, 8/1/1999
Z:id:hn-reel-217
K:D
ed|:cF~F2 c2dc|BG (3Bcd deed|=cdeg d2Ad|dfed ^cded|
cF~F2 c2dc|BG (3Bcd deed|=cdeg fde^c|1 dfec d2ed:|2 dfec d2ag||
|:fdfg a2gf|e=cef g3a|fg (3agf gfe^c|dfed ^cded|
cF~F2 c2dc|BG (3Bcd deed|=cdeg fde^c|1 dfec d2ag:|2 dfec d2||

